X:1
T:Lieder des Leids, Op.29
T:Gib dich dahin in Gottes Sinn
T:Herrn Obermedizinalrat Dr Albert von Zeller hochachtungsvoll zugeeignet
T:Lieder des Leids, Op.29
T:Josephine Lang
T:Albert Zeller
T:3. Gib dich dahin in Gottes Sinn 
T:Creative Commons copyright waiver (CC0 1.0 Universal)
T:Creative Commons copyright waiver (CC0 1.0 Universal)
C:Josephine Lang
Z:Albert Zeller
Z:Creative Commons copyright waiver (CC0 1.0 Universal)
%%score ( 1 2 )
L:1/8
Q:1/4=71
M:2/4
K:A
V:1 treble nm="Singstimme\nVoice"
V:2 treble 
V:1
"^Langsam und feierlich" z4 | z4 | z4 | z4 |: E2 F3/2 F/ | E2 z A, | D3 D | D2 C2 | (C2 E3/2) E/ | %9
w: ||||Gib dich da-|hin in|Got- tes|Sinn, *|lass Al- les|
w: ||||Welt so *|schön sie|muss ver-|geh'n, *|ich kann sie|
w: ||||Un- ge- *|mach hält|frisch und|wach, *|Heil * nicht|
 A2 G2 | F4 | E2 z2 | E2 F3/2 F/ | E2 z A, | D3 D | D2 C2 | (C2 E3/2) E/ | A2 G2 | F4 | E2 z2 | %20
w: An- dre|schwin-|den!|Schreit' im- mer|zu in|die- ser|Ruh *|dann wirst du|ü- ber-|win-|den!|
w: drum nicht|schel-|ten!|soll denn *|sie die|Sorg' und|Müh' *|uns'- * re|Not ent-|gel-|ten?|
w: zu ver-|säu-|men!|eit- le *|Herz ohn'|Sorg' und|Schmerz, *|würd' es gar|bald ver-|träu-|men.|
 !tenuto!E2 !tenuto!E !tenuto!E | !tenuto!E2 z2 | E2 F3/2 G/ | F3 E | D2 F3/2 F/ | B2 A2 | A4 | %27
w: Sei sanft und|still|hör' was er|will *|fall' ihm nicht|in die|Re-|
w: Sie hält auch|Freud'|* * be-|reit den|Wand- rer *|zu er-|qui-|
w: So geht es|Zeit|E- * wig-|keit, Ge-|hor- sam *|in die|Leh-|
 G2 F2 | E2 G3/2 F/ | E2 z A, | D2 z D | (D2 C2) | A,2 B, C | (ED C) =C | B,2- B,C/D/ | C2 z E | %36
w: * de,|so wird dein|Mut gar|frisch und|gut *|und aus ist|Kampf * * und|Feh- * * *|de! und|
w: * cken;|nur musst du|dich auch|sänf- tig-|lich *|in ih- re|Dor- * * nen|schi- * * *|cken! in|
w: * re,|und Al- les|führt wie|sich's ge-|bührt, *|zu Got- tes|Preis * * und|Eh- * * *|re! zu|
 c2 G2 | (BA F) D | (C2 B,2) | A,2 z E :| z4 | z4 | z4 | z4 |] %44
w: aus ist|Kampf * * und|Feh- *|de! 2. Die|||||
w: Ih- re|Dor- * * nen|schi- *|cken! 3. Das|||||
w: Got- tes|Preis * * und|Eh- *|re! *|||||
V:2
 x4 | x4 | x4 | x4 |: x4 | x4 | x4 | (x2 C) C | x4 | x4 | x4 | x2 z E | x4 | x4 | x4 | (x2 C) C | %16
w: ||||||||||||||||
w: |||||||||||Was||||* und|
w: |||||||* das||||Das|||||
 x4 | x4 | x4 | x4 | x4 | x2 z E | x2 x2 | x4 | x2 F2 | x4 | x4 | x4 | x4 | x4 | D3 D | x4 | x4 | %33
w: |||||||||||||||||
w: |||||ge-||||||||||||
w: |||||zur||||||||||||
 x4 | x4 | x4 | x4 | x4 | x4 | x2 z2 :| x4 | x4 | x4 | x4 |] %44
w: |||||||||||
w: |||||||||||
w: |||||||||||

